X:135
M:4/4
L:1/4
K:G
B B A A | G2 D2 | d d e e | A4 | c c B B | A2 E2 | G G A A | G4 | d d c c | B2 E2 | c c e e | (G2 F2) | c c A A | d2 B2 | A A F F | G4 | B B A A | G2 D2 | d d e e | A4 | !sintro!c c B B | A2 E2 | G G A A | G4 !eintro!|]
